vectors/google-developers/google-developers.svg

<svg xmlns="http://www.w3.org/2000/svg" viewBox="0 0 256 205"><path d="M27.008 53.504l-24.64 40.32C.768 96.32 0 99.264 0 102.4s.768 6.08 2.368 8.64l57.344 93.76h59.712L27.008 53.504zM59.712 0L33.92 42.112l29.888 48.896L119.488 0H59.712zm169.28 151.296l24.64-40.32c1.6-2.496 2.368-5.44 2.368-8.576s-.768-6.08-2.368-8.64L196.288 0h-59.712l92.416 151.296zM196.288 204.8l25.792-42.112-29.888-48.896-55.68 91.008h59.776z" fill="#C7CDD0"/></svg>

<svg version="1.1" xmlns="http://www.w3.org/2000/svg" xmlns:xlink="http://www.w3.org/1999/xlink" viewBox="0 0 256 205">
    <g>
        <path d="M27.008,53.504 L2.368,93.824 C0.768,96.32 0,99.264 0,102.4 C0,105.536 0.768,108.48 2.368,111.04 L59.712,204.8 L119.424,204.8 L27.008,53.504 L27.008,53.504 Z M59.712,0 L33.92,42.112 L63.808,91.008 L119.488,0 L59.712,0 L59.712,0 Z M228.992,151.296 L253.632,110.976 C255.232,108.48 256,105.536 256,102.4 C256,99.264 255.232,96.32 253.632,93.76 L196.288,0 L136.576,0 L228.992,151.296 L228.992,151.296 Z M196.288,204.8 L222.08,162.688 L192.192,113.792 L136.512,204.8 L196.288,204.8 L196.288,204.8 Z" fill="#C7CDD0" />
    </g>
</svg>
